icons/500px.svg

<?xml version="1.0" encoding="UTF-8"?>
<svg width="512px" height="128px" viewBox="0 0 512 128" version="1.1" xmlns="http://www.w3.org/2000/svg" xmlns:xlink="http://www.w3.org/1999/xlink" preserveAspectRatio="xMidYMid">
    <g>
        <path d="M158.951028,0 C123.598526,0 94.9396605,28.653776 94.9396605,64 C94.9396605,99.346224 123.598526,128 158.951028,128 C194.30353,128 222.962396,99.346224 222.962396,64 L222.962396,64 C222.649601,28.7841304 194.173153,0.312739534 158.951028,0 Z M158.951028,114.56 C131.200139,114.736163 108.56066,92.3866253 108.384091,64.6406664 C108.207521,36.8947075 130.560722,14.2589473 158.311607,14.0820338 C186.062492,13.9051204 208.702575,36.2540459 208.879895,64 L208.879895,64 C208.882113,91.6754789 186.629205,114.209678 158.951028,114.56 Z M296.511457,0 C261.158955,0 232.50009,28.653776 232.50009,64 C232.50009,99.346224 261.158955,128 296.511457,128 C331.863959,128 360.522825,99.346224 360.522825,64 L360.522825,64 C360.522825,47.0261447 353.778789,30.7474942 341.774329,18.745166 C329.769869,6.74283778 313.488327,0 296.511457,0 L296.511457,0 Z M296.511457,114.56 C268.760568,114.736163 246.121089,92.3866253 245.94452,64.6406664 C245.76795,36.8947075 268.121151,14.2589473 295.872036,14.0820338 C323.622921,13.9051204 346.263004,36.2540459 346.440324,64 L346.440324,64 C346.664122,77.3656076 341.49651,90.2584787 332.103001,99.7707272 C322.709493,109.282976 309.881205,114.613485 296.511457,114.56 L296.511457,114.56 Z M48.8514758,38.4 C36.783884,36.4461515 24.4537675,39.702585 14.9254509,47.36 L14.9254509,13.44 L72.5356818,13.44 C74.4560228,13.44 75.7362502,12.8 75.7362502,7.04 C75.7362502,1.28 73.1757955,1.28 71.8955681,1.28 L8.52431417,1.28 C5.34258897,1.28 2.76329108,3.85883984 2.76329108,7.04 L2.76329108,63.36 C2.76329108,66.56 4.68363211,67.2 7.88420049,67.84 C9.87367571,68.7595913 12.2325362,68.2354931 13.6452236,66.56 L13.6452236,66.56 C20.9269436,56.2361661 33.0398438,50.4230065 45.6509074,51.2 C60.4890098,53.0520655 72.2706977,64.5698922 74.4560228,79.36 C76.489063,97.0083078 63.9223216,112.999502 46.2910211,115.2 L42.450339,115.2 C29.0337536,115.010647 17.0993968,106.632693 12.3649962,94.08 C11.7248826,92.16 10.4446552,90.88 5.32374579,92.8 C0.202836376,94.72 -0.4372773,96 0.202836376,97.92 C8.87339554,121.077432 34.4921076,133.030708 57.8130673,124.8 C80.9746127,116.130981 92.9300116,90.5168182 84.6978417,67.2 C78.962904,51.7342082 65.1919042,40.6701914 48.8514758,38.4 Z M404.050555,0.64 C386.502783,2.66014049 373.274338,17.5394976 373.324953,35.2 L373.324953,92.16 C373.324953,95.36 375.885553,96 379.726235,96 C383.566917,96 386.127372,95.36 386.127372,92.16 L386.127372,35.2 C385.894959,24.2874887 393.876194,14.9318396 404.690668,13.44 C410.504381,12.8530656 416.300655,14.7075437 420.69351,18.56 C425.148953,22.4231447 427.716287,28.023606 427.734761,33.92 C427.308968,38.2904768 425.765931,42.4779765 423.253965,46.08 C419.141407,51.7908648 412.348066,54.9443559 405.330782,54.4 L405.330782,54.4 C402.770327,54.4 400.849986,54.4 400.209873,60.16 C400.209873,64 400.209873,65.92 403.410441,66.56 C409.8458,67.2164836 416.327253,65.8757315 421.973738,62.72 C432.297003,57.4605541 439.275648,47.3553464 440.537034,35.84 C441.277524,26.9790864 438.42682,18.1921816 432.625227,11.4529388 C426.823635,4.71369601 418.557518,0.587086304 409.683555,0 C407.852373,0.514018859 405.9504,0.730113727 404.050555,0.64 L404.050555,0.64 Z M487.905446,33.92 L510.949539,10.88 C511.589652,10.24 513.509993,8.32 509.669311,3.84 C508.60118,2.39582075 506.975235,1.46687443 505.188516,1.28 L505.188516,1.28 C504.185742,1.29919238 503.245082,1.76943886 502.628061,2.56 L479.583969,25.6 L456.539876,1.92 C454.619535,-1.77635684e-15 452.699194,0.64 449.498626,3.2 C446.298057,5.76 446.298057,8.32 448.218398,10.24 L471.262491,33.28 L448.090376,56.96 L448.090376,56.96 C447.416496,57.665646 446.970438,58.5576045 446.810148,59.52 C446.844252,61.3520219 447.809279,63.0405205 449.370603,64 C450.622875,65.219476 452.164818,66.1004301 453.851399,66.56 L453.851399,66.56 C455.010674,66.4159168 456.113107,65.975022 457.051967,65.28 L480.09606,42.24 L503.140152,65.28 C503.757173,66.0705611 504.697833,66.5408076 505.700607,66.56 L505.700607,66.56 C507.487326,66.3731256 509.113271,65.4441793 510.181402,64 C512.101743,61.44 512.741857,58.88 510.821516,57.6 L487.905446,33.92 Z" fill="#000000"></path>
    </g>
</svg>

<svg xmlns="http://www.w3.org/2000/svg" viewBox="0 0 512 128">
  <path d="M158.953 0c-35.352 0-64.011 28.654-64.011 64 0 35.346 28.659 64 64.011 64 35.353 0 64.011-28.654 64.011-64-.312-35.216-28.789-63.687-64.011-64zm0 114.56c-27.75.176-50.39-22.173-50.567-49.92-.176-27.745 22.177-50.381 49.928-50.558 27.75-.177 50.39 22.172 50.568 49.918.002 27.675-22.25 50.21-49.929 50.56zM296.513 0c-35.352 0-64.01 28.654-64.01 64 0 35.346 28.658 64 64.01 64 35.353 0 64.012-28.654 64.012-64a63.994 63.994 0 0 0-18.749-45.255A64.017 64.017 0 0 0 296.513 0zm0 114.56c-27.75.176-50.39-22.173-50.566-49.92-.177-27.745 22.176-50.381 49.927-50.558 27.75-.177 50.391 22.172 50.568 49.918a49.723 49.723 0 0 1-14.337 35.77 49.741 49.741 0 0 1-35.592 14.79zM48.853 38.4a43.15 43.15 0 0 0-33.926 8.96V13.44h57.61c1.921 0 3.201-.64 3.201-6.4 0-5.76-2.56-5.76-3.84-5.76H8.526a5.76 5.76 0 0 0-5.76 5.76v56.32c0 3.2 1.92 3.84 5.12 4.48 1.99.92 4.349.395 5.761-1.28A36.425 36.425 0 0 1 45.653 51.2c14.838 1.852 26.62 13.37 28.805 28.16C76.491 97.008 63.924 113 46.293 115.2h-3.84a32.646 32.646 0 0 1-30.086-21.12c-.64-1.92-1.92-3.2-7.041-1.28C.205 94.72-.435 96 .205 97.92c8.67 23.157 34.29 35.11 57.61 26.88 23.162-8.669 35.117-34.283 26.885-57.6a44.806 44.806 0 0 0-35.847-28.8zM404.053.64c-17.548 2.02-30.777 16.9-30.726 34.56v56.96c0 3.2 2.56 3.84 6.401 3.84 3.84 0 6.401-.64 6.401-3.84V35.2c-.232-10.913 7.75-20.268 18.564-21.76a21.062 21.062 0 0 1 16.003 5.12 20.414 20.414 0 0 1 7.04 15.36 25.597 25.597 0 0 1-4.48 12.16 20.165 20.165 0 0 1-17.923 8.32c-2.56 0-4.481 0-5.121 5.76 0 3.84 0 5.76 3.2 6.4a31.498 31.498 0 0 0 18.564-3.84 34.368 34.368 0 0 0 18.563-26.88 33.148 33.148 0 0 0-7.912-24.387A33.16 33.16 0 0 0 409.686 0c-1.832.514-3.734.73-5.633.64zm83.854 33.28 23.045-23.04c.64-.64 2.56-2.56-1.28-7.04a6.401 6.401 0 0 0-4.481-2.56 3.329 3.329 0 0 0-2.56 1.28L479.585 25.6 456.542 1.92C454.622 0 452.702.64 449.5 3.2c-3.2 2.56-3.2 5.12-1.28 7.04l23.043 23.04-23.172 23.68a4.864 4.864 0 0 0-1.28 2.56c.034 1.832 1 3.52 2.56 4.48a10.306 10.306 0 0 0 4.481 2.56 6.786 6.786 0 0 0 3.201-1.28l23.044-23.04 23.044 23.04a3.329 3.329 0 0 0 2.56 1.28 6.401 6.401 0 0 0 4.481-2.56c1.92-2.56 2.56-5.12.64-6.4z"/>
</svg>
